X: 3
T: Lovets Reel
C:
%R: reel
B: T. Davis "24 Country Dances for the Year 1748"
S: http://imslp.org/wiki/24_Country_Dances_for_the_Year_1748_(Davis,_T.) 2013-11-30
Z: 2013 John Chambers <jc:trillian.mit.edu>
N: The 2nd strain has initial repeat but no final repeat; fixed.
M: 2/4
L: 1/16
K: A
% - - - - - - - - - - - - - - - - - - - - - - - - -
% Voice 1 has 8-bar staffs.
V: 1 staves=2
a2 |\
e2A2 (dcBA) | e4 (dc)(BA) | a2c2 ( dcBA) | G2 B4 a2 |\
e2A2 (dcBA) | e4 (dcBA) | a2c2(TB2A2) | E2 A4 :|
|: e2 |\
c2A2 (agfe) | c2A2 (agfe) | c2A2a2A2 | G2 B4 e2 |\
c2A2 (agfe) | c2A2 (agfe) | a2c2B2A2 | E2 A4 :|
% - - - - - - - - - - - - - - - - - - - - - - - - -
% Voice 2 preserves the original staff breaks.
V: 2 clef=bass middle=d
a2 |\
A8- | A8- | A8 | e8 | A8- | A8- | A4 e4 | A6 :|\
|: z2 |
A4 a4 | A4 a4 | A4 "6"f4 | e8 |\
A4 a4 | A4 a4 | A4 e4 | A6 :|
%%begintext align
%% The first Man foot it to the 2d Wo. & cast off with his Partner into the 2d Cu. Place    then the
%% 2d Man foot it to the first Wo. & cast off with his Partner into their Places | Then the first Cu.
%% take Hands & lead thro' the 2d Cu. and cast up to Top: Right Hand & left into the 2d Couple's
%% Place and turn. ||
%%endtext
